apps/scalable/mplayer.svg

<svg xmlns="http://www.w3.org/2000/svg" style="isolation:isolate" width="256" height="256"><defs><filter id="a" width="270.648" height="254.338" x="-7.32" y="2.95" filterUnits="userSpaceOnUse"><feGaussianBlur xmlns="http://www.w3.org/2000/svg" in="SourceGraphic" stdDeviation="4.294"/><feOffset xmlns="http://www.w3.org/2000/svg" dy="4" result="pf_100_offsetBlur"/><feFlood xmlns="http://www.w3.org/2000/svg" flood-opacity=".4"/><feComposite xmlns="http://www.w3.org/2000/svg" in2="pf_100_offsetBlur" operator="in" result="pf_100_dropShadow"/><feBlend xmlns="http://www.w3.org/2000/svg" in="SourceGraphic" in2="pf_100_dropShadow"/></filter></defs><path fill="#CDCDCD" d="M165.685 11.947c74.055 0 84.639 10.557 84.639 84.544v59.251c0 73.986-10.584 84.543-84.639 84.543h-75.37c-74.055 0-84.639-10.557-84.639-84.543V96.491c0-73.987 10.584-84.544 84.639-84.544h75.37z" filter="url(#a)"/><defs><filter id="b" width="199.045" height="187.509" x="28.48" y="36.25" filterUnits="userSpaceOnUse"><feGaussianBlur xmlns="http://www.w3.org/2000/svg" in="SourceGraphic" stdDeviation="4.294"/><feOffset xmlns="http://www.w3.org/2000/svg" dy="4" result="pf_100_offsetBlur"/><feFlood xmlns="http://www.w3.org/2000/svg" flood-opacity=".4"/><feComposite xmlns="http://www.w3.org/2000/svg" in2="pf_100_offsetBlur" operator="in" result="pf_100_dropShadow"/><feBlend xmlns="http://www.w3.org/2000/svg" in="SourceGraphic" in2="pf_100_dropShadow"/></filter></defs><path fill="#2B898F" d="M154.655 45.246c52.382 0 59.868 7.467 59.868 59.799v41.91c0 52.332-7.486 59.799-59.868 59.799h-53.31c-52.382 0-59.868-7.467-59.868-59.799v-41.91c0-52.332 7.486-59.799 59.868-59.799h53.31z" filter="url(#b)"/><path fill="#FFF" d="M5.676 126.116v29.626c0 73.986 10.584 84.543 84.639 84.543h75.37c74.055 0 84.639-10.557 84.639-84.543v-29.626H5.676z" opacity=".1"/><path fill="#FFF" d="M128 11.947v228.338h37.685c74.055 0 84.639-10.557 84.639-84.543V96.491c0-73.987-10.584-84.544-84.639-84.544H128z" opacity=".2"/><defs><filter id="c" width="133.622" height="141.395" x="68.54" y="56.26" filterUnits="userSpaceOnUse"><feGaussianBlur xmlns="http://www.w3.org/2000/svg" stdDeviation="9.064"/></filter></defs><g opacity=".4" filter="url(#c)"><linearGradient id="d" x1=".455" x2=".455" y2=".988" gradientTransform="matrix(91.401 0 0 99.174 89.653 77.366)" gradientUnits="userSpaceOnUse"><stop offset="0%" stop-opacity="0"/><stop offset="50.477%"/><stop offset="100%" stop-opacity="0"/></linearGradient><path fill="url(#d)" d="M89.653 77.366v99.174s50.299-20.33 91.4-49.619c0-.008-.004-.016-.01-.026a.186.186 0 0 0-.019-.033.28.28 0 0 1-.02-.032.073.073 0 0 1-.011-.031c-43.354-30.223-91.34-49.433-91.34-49.433z"/></g><defs><filter id="e" width="96.678" height="104.451" x="87.01" y="74.73" filterUnits="userSpaceOnUse"><feGaussianBlur xmlns="http://www.w3.org/2000/svg" stdDeviation="1.133"/></filter></defs><path d="M89.653 77.366v99.174s50.299-20.33 91.4-49.619c0-.008-.004-.016-.01-.026a.186.186 0 0 0-.019-.033.28.28 0 0 1-.02-.032.073.073 0 0 1-.011-.031c-43.354-30.223-91.34-49.433-91.34-49.433z" opacity=".1" filter="url(#e)"/><radialGradient id="f" cx=".5" cy=".5" r="14.914" fx=".5" fy=".5" gradientTransform="matrix(91.401 0 0 99.174 89.653 76.54)" gradientUnits="userSpaceOnUse"><stop offset="0%" stop-color="#f5f5f5"/><stop offset="100%" stop-color="#fbfbfb"/></radialGradient><path fill="url(#f)" d="M89.653 76.54v99.173s50.299-20.329 91.4-49.618c0-.009-.004-.015-.01-.028-.005-.012-.011-.021-.018-.032-.009-.012-.016-.021-.021-.032-.006-.013-.011-.022-.011-.032-43.354-30.221-91.34-49.431-91.34-49.431z"/><path fill="#FFF" d="M89.652 76.54v.826s47.661 19.074 90.866 49.106c.178-.127.358-.25.536-.377 0-.009-.005-.015-.011-.028-.005-.012-.011-.021-.018-.032a.27.27 0 0 1-.022-.033c-.005-.012-.01-.021-.01-.031C137.639 95.75 89.652 76.54 89.652 76.54z"/><g opacity=".4"><linearGradient id="g" x1=".517" x2=".517" y2="1"><stop offset="0%" stop-color="#fff"/><stop offset="12.5%" stop-opacity=".098" stop-color="#fff"/><stop offset="92.5%" stop-opacity=".098"/><stop offset="100%" stop-opacity=".498"/></linearGradient><path fill="none" stroke="url(#g)" stroke-linecap="round" stroke-linejoin="round" stroke-width="4.077" d="M165.685 11.947c74.055 0 84.639 10.557 84.639 84.544v59.251c0 73.986-10.584 84.543-84.639 84.543h-75.37c-74.055 0-84.639-10.557-84.639-84.543V96.491c0-73.987 10.584-84.544 84.639-84.544h75.37z" vector-effect="non-scaling-stroke"/></g></svg>

<svg xmlns="http://www.w3.org/2000/svg" style="isolation:isolate" width="256" height="256" viewBox="0 0 256 256">
 <defs>
  <filter id="3NYvxnhmwJWxNDndbJhnJbCCj7ZUeASr" width="270.648" height="254.338" x="-7.32" y="2.95" filterUnits="userSpaceOnUse">
   <feGaussianBlur xmlns="http://www.w3.org/2000/svg" in="SourceGraphic" stdDeviation="4.294"/>
   <feOffset xmlns="http://www.w3.org/2000/svg" dx="0" dy="4" result="pf_100_offsetBlur"/>
   <feFlood xmlns="http://www.w3.org/2000/svg" flood-opacity=".4"/>
   <feComposite xmlns="http://www.w3.org/2000/svg" in2="pf_100_offsetBlur" operator="in" result="pf_100_dropShadow"/>
   <feBlend xmlns="http://www.w3.org/2000/svg" in="SourceGraphic" in2="pf_100_dropShadow" mode="normal"/>
  </filter>
 </defs>
 <g filter="url(#3NYvxnhmwJWxNDndbJhnJbCCj7ZUeASr)">
  <path fill="#CDCDCD" d="M 165.685 11.947 C 239.74 11.947 250.324 22.504 250.324 96.491 L 250.324 155.742 C 250.324 229.728 239.74 240.285 165.685 240.285 L 90.315 240.285 C 16.26 240.285 5.676 229.728 5.676 155.742 L 5.676 96.491 C 5.676 22.504 16.26 11.947 90.315 11.947 L 165.685 11.947 Z"/>
 </g>
 <defs>
  <filter id="0XjuZcyElYVi6EwKzetpYa0isNMu8NPL" width="199.045" height="187.509" x="28.48" y="36.25" filterUnits="userSpaceOnUse">
   <feGaussianBlur xmlns="http://www.w3.org/2000/svg" in="SourceGraphic" stdDeviation="4.294"/>
   <feOffset xmlns="http://www.w3.org/2000/svg" dx="0" dy="4" result="pf_100_offsetBlur"/>
   <feFlood xmlns="http://www.w3.org/2000/svg" flood-opacity=".4"/>
   <feComposite xmlns="http://www.w3.org/2000/svg" in2="pf_100_offsetBlur" operator="in" result="pf_100_dropShadow"/>
   <feBlend xmlns="http://www.w3.org/2000/svg" in="SourceGraphic" in2="pf_100_dropShadow" mode="normal"/>
  </filter>
 </defs>
 <g filter="url(#0XjuZcyElYVi6EwKzetpYa0isNMu8NPL)">
  <path fill="#2B898F" d="M 154.655 45.246 C 207.037 45.246 214.523 52.713 214.523 105.045 L 214.523 146.955 C 214.523 199.287 207.037 206.754 154.655 206.754 L 101.345 206.754 C 48.963 206.754 41.477 199.287 41.477 146.955 L 41.477 105.045 C 41.477 52.713 48.963 45.246 101.345 45.246 L 154.655 45.246 Z"/>
 </g>
 <g opacity=".1">
  <path fill="#FFFFFF" d="M 5.676 126.116 L 5.676 155.742 C 5.676 229.728 16.26 240.285 90.315 240.285 L 165.685 240.285 C 239.74 240.285 250.324 229.728 250.324 155.742 L 250.324 126.116 L 5.676 126.116 Z"/>
 </g>
 <g opacity=".2">
  <path fill="#FFFFFF" d="M 128 11.947 L 128 240.285 L 165.685 240.285 C 239.74 240.285 250.324 229.728 250.324 155.742 L 250.324 96.491 C 250.324 22.504 239.74 11.947 165.685 11.947 L 128 11.947 Z"/>
 </g>
 <g>
  <defs>
   <filter id="KlWslPaKHAzdb5kOp6aDssNXAeZjjHA3" width="133.622" height="141.395" x="68.54" y="56.26" filterUnits="userSpaceOnUse">
    <feGaussianBlur xmlns="http://www.w3.org/2000/svg" stdDeviation="9.064"/>
   </filter>
  </defs>
  <g opacity=".4" filter="url(#KlWslPaKHAzdb5kOp6aDssNXAeZjjHA3)">
   <linearGradient id="_lgradient_287" x1=".455" x2=".455" y1="0" y2=".988" gradientTransform="matrix(91.401,0,0,99.174,89.653,77.366)" gradientUnits="userSpaceOnUse">
    <stop offset="0%" stop-opacity="0" style="stop-color:rgb(0,0,0)"/>
    <stop offset="50.477%" style="stop-color:rgb(0,0,0)"/>
    <stop offset="100%" stop-opacity="0" style="stop-color:rgb(0,0,0)"/>
   </linearGradient>
   <path fill="url(#_lgradient_287)" d="M 89.653 77.366 L 89.653 176.54 C 89.653 176.54 139.952 156.21 181.053 126.921 C 181.053 126.913 181.049 126.905 181.043 126.895 C 181.038 126.884 181.032 126.873 181.024 126.862 C 181.017 126.852 181.009 126.84 181.004 126.83 C 180.998 126.819 180.993 126.808 180.993 126.799 C 137.639 96.576 89.653 77.366 89.653 77.366 L 89.653 77.366 Z"/>
  </g>
  <defs>
   <filter id="fDPf73PkiqySUBAIc8Tqvz2wiCOdsF3g" width="96.678" height="104.451" x="87.01" y="74.73" filterUnits="userSpaceOnUse">
    <feGaussianBlur xmlns="http://www.w3.org/2000/svg" stdDeviation="1.133"/>
   </filter>
  </defs>
  <g opacity=".1" filter="url(#fDPf73PkiqySUBAIc8Tqvz2wiCOdsF3g)">
   <path d="M 89.653 77.366 L 89.653 176.54 C 89.653 176.54 139.952 156.21 181.053 126.921 C 181.053 126.913 181.049 126.905 181.043 126.895 C 181.038 126.884 181.032 126.873 181.024 126.862 C 181.017 126.852 181.009 126.84 181.004 126.83 C 180.998 126.819 180.993 126.808 180.993 126.799 C 137.639 96.576 89.653 77.366 89.653 77.366 L 89.653 77.366 Z"/>
  </g>
  <radialGradient id="_rgradient_15" cx=".5" cy=".5" r="14.914" fx=".5" fy=".5" gradientTransform="matrix(91.401,0,0,99.174,89.653,76.54)" gradientUnits="userSpaceOnUse">
   <stop offset="0%" style="stop-color:rgb(245,245,245)"/>
   <stop offset="100%" style="stop-color:rgb(251,251,251)"/>
  </radialGradient>
  <path fill="url(#_rgradient_15)" d="M 89.653 76.54 L 89.653 175.713 C 89.653 175.713 139.952 155.384 181.053 126.095 C 181.053 126.086 181.049 126.08 181.043 126.067 C 181.038 126.055 181.032 126.046 181.025 126.035 C 181.016 126.023 181.009 126.014 181.004 126.003 C 180.998 125.99 180.993 125.981 180.993 125.971 C 137.639 95.75 89.653 76.54 89.653 76.54 L 89.653 76.54 Z"/>
  <path fill="#FFFFFF" d="M 89.652 76.54 L 89.652 77.366 C 89.652 77.366 137.313 96.44 180.518 126.472 C 180.696 126.345 180.876 126.222 181.054 126.095 C 181.054 126.086 181.049 126.08 181.043 126.067 C 181.038 126.055 181.032 126.046 181.025 126.035 C 181.016 126.023 181.009 126.013 181.003 126.002 C 180.998 125.99 180.993 125.981 180.993 125.971 C 137.639 95.75 89.652 76.54 89.652 76.54 L 89.652 76.54 Z"/>
 </g>
 <g opacity=".4">
  <linearGradient id="_lgradient_288" x1=".517" x2=".517" y1="0" y2="1">
   <stop offset="0%" style="stop-color:rgb(255,255,255)"/>
   <stop offset="12.5%" stop-opacity=".098" style="stop-color:rgb(255,255,255)"/>
   <stop offset="92.5%" stop-opacity=".098" style="stop-color:rgb(0,0,0)"/>
   <stop offset="100%" stop-opacity=".498" style="stop-color:rgb(0,0,0)"/>
  </linearGradient>
  <path fill="none" stroke="url(#_lgradient_288)" stroke-linecap="round" stroke-linejoin="round" stroke-width="4.077" d="M 165.685 11.947 C 239.74 11.947 250.324 22.504 250.324 96.491 L 250.324 155.742 C 250.324 229.728 239.74 240.285 165.685 240.285 L 90.315 240.285 C 16.26 240.285 5.676 229.728 5.676 155.742 L 5.676 96.491 C 5.676 22.504 16.26 11.947 90.315 11.947 L 165.685 11.947 Z" vector-effect="non-scaling-stroke"/>
 </g>
</svg>
